O0001(Unnamed) 
(generated by LiaoNCgenerator) 
 
(*****Pocket-1*****) 
G40 G17 G49 G90 G80 G21 G54 
G91 G28 Z0 
T1M6 
S1000M3 
G54 G90 G00 X0. Y0. 
G43 Z100 H1 
G00 Z20.000 
M08 
G01 X25.000 Y30.000 F100 
Z0.000 
 
G01 X25.000 Y30.000 Z0.000 
G02 Y32.500 R5 
G02 J-5 Z-1.000 
G02 Y30.000 R5 
 
G01 X25.000 Y55.000 F100 
X25.000 
Y5.000 
X25.000 
Y55.000 
X22.000 
Y2.000 
X28.000 
Y58.000 
X19.000 
Y-1.000 
X31.000 
Y61.000 
X16.000 
Y-4.000 
X34.000 
Y64.000 
X13.000 
Y-7.000 
X37.000 
Y67.000 
X10.000 
Y-10.000 
X40.000 
Y70.000 
X7.000 
Y-13.000 
X43.000 
Y73.000 
X4.000 
Y-16.000 
X46.000 
Y76.000 
X1.000 
Y-19.000 
X49.000 
Y79.000 
X-2.000 
Y-22.000 
X52.000 
Y82.000 
X-5.000 
Y-25.000 
X55.000 
Y85.000 
X-8.000 
Y-28.000 
X58.000 
Y88.000 
X-11.000 
Y-31.000 
X61.000 
Y91.000 
X-14.000 
Y-34.000 
X64.000 
Y94.000 
X-17.000 
Y-37.000 
X67.000 
Y97.000 
X-20.000 
Y-40.000 
X70.000 
Y100.000 
X-23.000 
Y-43.000 
X73.000 
Y103.000 
X-26.000 
Y-46.000 
X76.000 
Y106.000 
X-29.000 
Y-49.000 
X79.000 
Y109.000 
X-32.000 
Y-52.000 
X82.000 
Y112.000 
X-35.000 
Y-55.000 
X85.000 
Y115.000 
X-38.000 
Y-58.000 
X88.000 
Y118.000 
X-41.000 
Y-61.000 
X91.000 
Y121.000 
X-44.000 
Y-64.000 
X94.000 
Y124.000 
X-47.000 
Y-67.000 
X97.000 
Y127.000 
X-50.000 
Y-70.000 
X100.000 
Y130.000 
X-53.000 
Y-73.000 
X103.000 
Y133.000 
X-56.000 
Y-76.000 
X106.000 
Y136.000 
X105.000 
Y85.000 
X-55.000 
Y-25.000 
X105.000 
G00 Z20.000 
G01 X25.000 Y30.000 F100 
Z1.000 
 
G01 X25.000 Y30.000 Z1.000 
G02 Y32.500 R5 
G02 J-5 Z0.000 
G02 J-5 Z-1.000 
G02 J-5 Z-2.000 
G02 J-5 Z-3.000 
G02 J-5 Z-4.000 
G02 Y30.000 R5 
 
G01 X25.000 Y55.000 F100 
X25.000 
Y5.000 
X25.000 
Y55.000 
X22.000 
Y2.000 
X28.000 
Y58.000 
X19.000 
Y-1.000 
X31.000 
Y61.000 
X16.000 
Y-4.000 
X34.000 
Y64.000 
X13.000 
Y-7.000 
X37.000 
Y67.000 
X10.000 
Y-10.000 
X40.000 
Y70.000 
X7.000 
Y-13.000 
X43.000 
Y73.000 
X4.000 
Y-16.000 
X46.000 
Y76.000 
X1.000 
Y-19.000 
X49.000 
Y79.000 
X-2.000 
Y-22.000 
X52.000 
Y82.000 
X-5.000 
Y-25.000 
X55.000 
Y85.000 
X-8.000 
Y-28.000 
X58.000 
Y88.000 
X-11.000 
Y-31.000 
X61.000 
Y91.000 
X-14.000 
Y-34.000 
X64.000 
Y94.000 
X-17.000 
Y-37.000 
X67.000 
Y97.000 
X-20.000 
Y-40.000 
X70.000 
Y100.000 
X-23.000 
Y-43.000 
X73.000 
Y103.000 
X-26.000 
Y-46.000 
X76.000 
Y106.000 
X-29.000 
Y-49.000 
X79.000 
Y109.000 
X-32.000 
Y-52.000 
X82.000 
Y112.000 
X-35.000 
Y-55.000 
X85.000 
Y115.000 
X-38.000 
Y-58.000 
X88.000 
Y118.000 
X-41.000 
Y-61.000 
X91.000 
Y121.000 
X-44.000 
Y-64.000 
X94.000 
Y124.000 
X-47.000 
Y-67.000 
X97.000 
Y127.000 
X-50.000 
Y-70.000 
X100.000 
Y130.000 
X-53.000 
Y-73.000 
X103.000 
Y133.000 
X-56.000 
Y-76.000 
X106.000 
Y136.000 
X105.000 
Y85.000 
X-55.000 
Y-25.000 
X105.000 
G00 Z20.000 
G01 X25.000 Y30.000 F100 
Z-2.000 
 
G01 X25.000 Y30.000 Z-2.000 
G02 Y32.500 R5 
G02 J-5 Z-3.000 
G02 J-5 Z-4.000 
G02 J-5 Z-5.000 
G02 J-5 Z-6.000 
G02 J-5 Z-7.000 
G02 Y30.000 R5 
 
G01 X25.000 Y55.000 F100 
X25.000 
Y5.000 
X25.000 
Y55.000 
X22.000 
Y2.000 
X28.000 
Y58.000 
X19.000 
Y-1.000 
X31.000 
Y61.000 
X16.000 
Y-4.000 
X34.000 
Y64.000 
X13.000 
Y-7.000 
X37.000 
Y67.000 
X10.000 
Y-10.000 
X40.000 
Y70.000 
X7.000 
Y-13.000 
X43.000 
Y73.000 
X4.000 
Y-16.000 
X46.000 
Y76.000 
X1.000 
Y-19.000 
X49.000 
Y79.000 
X-2.000 
Y-22.000 
X52.000 
Y82.000 
X-5.000 
Y-25.000 
X55.000 
Y85.000 
X-8.000 
Y-28.000 
X58.000 
Y88.000 
X-11.000 
Y-31.000 
X61.000 
Y91.000 
X-14.000 
Y-34.000 
X64.000 
Y94.000 
X-17.000 
Y-37.000 
X67.000 
Y97.000 
X-20.000 
Y-40.000 
X70.000 
Y100.000 
X-23.000 
Y-43.000 
X73.000 
Y103.000 
X-26.000 
Y-46.000 
X76.000 
Y106.000 
X-29.000 
Y-49.000 
X79.000 
Y109.000 
X-32.000 
Y-52.000 
X82.000 
Y112.000 
X-35.000 
Y-55.000 
X85.000 
Y115.000 
X-38.000 
Y-58.000 
X88.000 
Y118.000 
X-41.000 
Y-61.000 
X91.000 
Y121.000 
X-44.000 
Y-64.000 
X94.000 
Y124.000 
X-47.000 
Y-67.000 
X97.000 
Y127.000 
X-50.000 
Y-70.000 
X100.000 
Y130.000 
X-53.000 
Y-73.000 
X103.000 
Y133.000 
X-56.000 
Y-76.000 
X106.000 
Y136.000 
X105.000 
Y85.000 
X-55.000 
Y-25.000 
X105.000 
G00 Z20.000 
 
G90 G00 Z50 
M09 
G00 G91 G28 Z0 
M05 
 
M30 
% 

